X:1135
M:C
L:1/8
Q:1/4=90 "Andante"
K:D
zA |B>c c3/B//c// dD D2    |!
"^So" d2        d>e f2 zf|fg fe  fd    B2|
      d3/e//f// ed  dc B2|BA BA A>G    Fa|!
      ag````````fe  d2 dc|BA B=c       BA HF
 z/B/|AGFE          D>EFA|!B2 c3/B//c// d2
zA   |B>c c3/B//c// de`fz|ez cz        d2|]

